ui_kit/lib/assets/icons/live_stream.svg

<svg width="12" height="12" viewBox="0 0 12 12" fill="none" xmlns="http://www.w3.org/2000/svg">
<path d="M5.722 11.7214C8.8597 11.7214 11.4495 9.13151 11.4495 5.99935C11.4495 2.86719 8.85417 0.277344 5.71647 0.277344C2.58431 0.277344 0 2.86719 0 5.99935C0 9.13151 2.58984 11.7214 5.722 11.7214ZM5.722 10.5814C3.18197 10.5814 1.15104 8.53939 1.15104 5.99935C1.15104 3.45931 3.18197 1.42285 5.71647 1.42285C8.25651 1.42285 10.2985 3.45931 10.304 5.99935C10.3096 8.53939 8.26204 10.5814 5.722 10.5814ZM5.72754 8.16862C6.92838 8.16862 7.89681 7.2002 7.89681 5.99382C7.89681 4.7985 6.92838 3.82454 5.72754 3.82454C4.52116 3.82454 3.55273 4.7985 3.55273 5.99382C3.55273 7.2002 4.52116 8.16862 5.72754 8.16862Z" fill="#CC525F"/>
</svg>

<svg xmlns="http://www.w3.org/2000/svg" width="12" height="12" fill="none" viewBox="0 0 12 12"><path fill="#CC525F" d="M5.722 11.721c3.138 0 5.728-2.59 5.728-5.722 0-3.132-2.596-5.722-5.734-5.722C2.584.277 0 2.867 0 6s2.59 5.722 5.722 5.722Zm0-1.14A4.56 4.56 0 0 1 1.151 6a4.554 4.554 0 0 1 4.565-4.576A4.573 4.573 0 0 1 10.304 6a4.566 4.566 0 0 1-4.582 4.582Zm.006-2.412c1.2 0 2.169-.969 2.169-2.175a2.17 2.17 0 0 0-2.17-2.17 2.17 2.17 0 0 0-2.174 2.17c0 1.206.968 2.175 2.175 2.175Z"/></svg>
